X: 7036
T: Chilling On A Sunday
R: reel
M: 4/4
K: Eminor
|:E>B (3BBB c>BA>e|z>Bc>A B>zA>G|F>A (3AAA c>BA>G|F>GA>F B>zA>G|
E>B (3BBB c>BA>e|z>Bc>A B>zA>G|F>A (3AAA c>BA>e|z>dz>B z>AG>F:|
|:c>c (3ccc c>BA>G|A>A (3AAA A>GE>D|E>B (3BBB d>Bd>e|B>BA>G A>GF>G|
E>c (3ccc e>cf>g|z>f e>d B>zA>G|F>A (3AAA e>dB>A|G>AF>G E4:|

